projects/samara/images/icons/vk.svg

<svg width="27" height="16" viewBox="0 0 27 16" fill="none" xmlns="http://www.w3.org/2000/svg">
<path fill="currentColor" fill-rule="evenodd" clip-rule="evenodd" d="M26.3184 1.15196C26.4982 0.555596 26.3184 0.116516 25.4574 0.116516H22.6142C21.8907 0.116516 21.5571 0.495523 21.3762 0.91385C21.3762 0.91385 19.9302 4.40464 17.8821 6.67213C17.2192 7.32966 16.9181 7.53827 16.5563 7.53827C16.3755 7.53827 16.1036 7.32966 16.1036 6.7322V1.15196C16.1036 0.43545 15.9043 0.116516 15.3021 0.116516H10.831C10.3793 0.116516 10.1075 0.448556 10.1075 0.764213C10.1075 1.44249 11.1321 1.59978 11.2372 3.50901V7.65733C11.2372 8.56716 11.0715 8.73209 10.7097 8.73209C9.74573 8.73209 7.40078 5.22491 6.00898 1.21203C5.73929 0.43108 5.46634 0.116516 4.73958 0.116516H1.89424C1.0819 0.116516 0.919434 0.495523 0.919434 0.91385C0.919434 1.65876 1.8834 5.35926 5.40894 10.2536C7.7593 13.5958 11.0682 15.4079 14.0825 15.4079C15.8902 15.4079 16.1133 15.0059 16.1133 14.3123V11.786C16.1133 10.981 16.2845 10.8205 16.8574 10.8205C17.2799 10.8205 18.0023 11.0302 19.6898 12.6412C21.6177 14.5515 21.9351 15.4079 23.0204 15.4079H25.8635C26.6759 15.4079 27.0831 15.0059 26.8492 14.2108C26.5914 13.42 25.6707 12.272 24.4501 10.91C23.7872 10.1345 22.7929 9.29896 22.4907 8.88064C22.0694 8.34435 22.1896 8.10515 22.4907 7.62784C22.4907 7.62784 25.9567 2.79359 26.3174 1.15196H26.3184Z"/>
</svg>

<svg width="27" height="16" fill="none" xmlns="http://www.w3.org/2000/svg"><path fill="currentColor" fill-rule="evenodd" clip-rule="evenodd" d="M26.318 1.152c.18-.596 0-1.035-.86-1.035h-2.844c-.723 0-1.057.379-1.238.797 0 0-1.446 3.49-3.494 5.758-.663.658-.964.866-1.326.866-.18 0-.452-.208-.452-.806v-5.58c0-.717-.2-1.035-.802-1.035h-4.471c-.452 0-.723.332-.723.647 0 .678 1.024.836 1.13 2.745v4.148c0 .91-.166 1.075-.528 1.075-.964 0-3.31-3.507-4.701-7.52-.27-.78-.543-1.095-1.27-1.095H1.895C1.082.117.92.496.92.914c0 .745.964 4.445 4.49 9.34 2.35 3.342 5.66 5.154 8.673 5.154 1.808 0 2.031-.402 2.031-1.096v-2.526c0-.805.172-.966.744-.966.423 0 1.145.21 2.833 1.821 1.928 1.91 2.245 2.767 3.33 2.767h2.843c.813 0 1.22-.402.986-1.197-.258-.791-1.178-1.939-2.399-3.301-.663-.776-1.657-1.611-1.96-2.03-.42-.536-.3-.775 0-1.252 0 0 3.467-4.834 3.827-6.476h.001z"/></svg>
